packages/dnb-eufemia/assets/icons/people_2.svg

<svg width="16" height="16" viewBox="0 0 16 16" fill="none" xmlns="http://www.w3.org/2000/svg">
<path d="M1 12.3733C1.00101 10.9684 1.67437 9.6488 2.81138 8.82356C3.693 8.18368 4.77079 7.90094 5.83333 8.00875M2.42654 2.31995C3.26549 3.18977 4.42209 3.68103 5.63057 3.68085C6.23664 3.68126 6.83642 3.55785 7.3931 3.3182M6.83333 15C6.83428 13.6731 7.46275 12.4269 8.52396 11.6475C9.25159 11.1131 10.1224 10.8426 10.9999 10.8575M15.0185 15C15.0175 13.6731 14.3891 12.4269 13.3279 11.6475C12.6412 11.1431 11.827 10.8737 10.9999 10.8575M9.65391 11.06C10.094 10.9152 10.5489 10.8487 10.9999 10.8575M13.2109 6.25208C12.2762 6.89089 11.2218 7.1228 10.1186 6.88533C9.56522 6.7667 9.06156 6.58608 8.59985 6.25538M7.4178 3.68085C7.4178 5.16144 6.21754 6.3617 4.73694 6.3617C3.25635 6.3617 2.05609 5.16144 2.05609 3.68085C2.05609 2.20026 3.25635 1 4.73694 1C6.21754 1 7.4178 2.20026 7.4178 3.68085ZM13.4132 6.75435C13.4132 8.15269 12.2929 9.28627 10.911 9.28627C9.52914 9.28627 8.4089 8.15269 8.4089 6.75435C8.4089 5.35601 9.52914 4.22244 10.911 4.22244C12.2929 4.22244 13.4132 5.35601 13.4132 6.75435Z" stroke="black" stroke-width="1.5" stroke-linecap="round" stroke-linejoin="round"/>
</svg>

<svg width="16" height="16" viewBox="0 0 16 16" fill="none" xmlns="http://www.w3.org/2000/svg"><path d="M1 12.373A4.39 4.39 0 0 1 5.833 8.01M2.427 2.32a4.45 4.45 0 0 0 4.966.998M6.833 15a4.161 4.161 0 0 1 1.691-3.352 4.064 4.064 0 0 1 2.476-.79M15.018 15a4.162 4.162 0 0 0-1.69-3.352 4.065 4.065 0 0 0-2.328-.79m-1.346.202c.44-.145.895-.211 1.346-.203m2.21-4.605c-.934.639-1.988.87-3.091.633-.554-.118-1.057-.299-1.52-.63m-1.18-2.574a2.68 2.68 0 1 1-5.362 0 2.68 2.68 0 0 1 5.362 0Zm5.995 3.073c0 1.399-1.12 2.532-2.502 2.532-1.382 0-2.502-1.133-2.502-2.532 0-1.398 1.12-2.532 2.502-2.532 1.382 0 2.502 1.134 2.502 2.532Z" stroke="#000" stroke-width="1.5" stroke-linecap="round" stroke-linejoin="round"/></svg>
